X:210
T:Duke of Kent
R:Reel
B:The Athole Collection
M:C|
L:1/8
K:F
G|:F2 FG AfcA|BAGA BcdB|AGFG ABcA|1 dfeg fdcA:|2 dfeg ~f2f||
g|f/g/a gf f/g/a gf|gfef gabg|f/g/a gf dfcf|agfe ~f2 fg|f//g/a gf f/g/a gf|
gfef gabg|afge fdec|fBcA GABG||

